material/.icons/material/flask-empty-off.svg

<svg xmlns="http://www.w3.org/2000/svg" viewBox="0 0 24 24"><path d="M20.8 22.7l-1.2-1.2c-.5.3-1 .5-1.6.5H6c-1.7 0-3-1.3-3-3 0-.6.2-1.2.5-1.6l4.4-7.6L1.1 3l1.3-1.3 19.7 19.7-1.3 1.3M15 7.8V6c.6 0 1-.4 1-1V4c0-1.1-.9-2-2-2h-4c-1.1 0-2 .9-2 2v.8l12.4 12.4L15 7.8z"/></svg>

<?xml version="1.0" encoding="UTF-8"?><!DOCTYPE svg PUBLIC "-//W3C//DTD SVG 1.1//EN" "http://www.w3.org/Graphics/SVG/1.1/DTD/svg11.dtd"><svg xmlns="http://www.w3.org/2000/svg" xmlns:xlink="http://www.w3.org/1999/xlink" version="1.1" id="mdi-flask-empty-off" width="24" height="24" viewBox="0 0 24 24"><path d="M20.8 22.7L19.6 21.5C19.1 21.8 18.6 22 18 22H6C4.3 22 3 20.7 3 19C3 18.4 3.2 17.8 3.5 17.4L7.9 9.8L1.1 3L2.4 1.7L22.1 21.4L20.8 22.7M15 7.8V6C15.6 6 16 5.6 16 5V4C16 2.9 15.1 2 14 2H10C8.9 2 8 2.9 8 4V4.8L20.4 17.2L15 7.8Z" /></svg>
